share/icons/Flat-Remix-Blue-Dark/mimetypes/scalable/text-x-pascal.svg

<svg xmlns="http://www.w3.org/2000/svg" xmlns:xlink="http://www.w3.org/1999/xlink" width="36pt" height="36pt" version="1.1" viewBox="0 0 36 36"> <defs> <clipPath id="clip1"> <path d="M 20 2 L 31 2 L 31 13 L 20 13 Z M 20 2"/> </clipPath> <clipPath id="clip2"> <path d="M 20.515625 2.625 L 30.328125 12.4375 L 22.023438 12.4375 C 21.292969 12.4375 20.515625 11.660156 20.515625 10.929688 Z M 20.515625 2.625"/> </clipPath> <image id="image6" width="36" height="36" xlink:href="data:image/png;base64,iVBORw0KGgoAAAANSUhEUgAAACQAAAAkCAYAAADhAJiYAAAABmJLR0QA/wD/AP+gvaeTAAAAmklEQVRYhe3T0QqCQBBG4aOtYEoUvf9Lildltl00C4tkbBeTIP+BAUEYP1YW1Pcqh53B9kbgaVPcwQF0tAmGSrMZ6AKcDQXw+AUVHEAtcAUaewYYgYmC3+cBCkAPnDJQMcoDVNnebgEqQnmAclTz4d0I3P4JStc9AjXvk4qLWQV53LLeEOl05gw4A3dgcPiuUkoppZRSSqk99gLWvSJpuDnlsAAAAABJRU5ErkJggg=="/> </defs> <g> <path style="fill:rgb(97.254%,87.058%,40.784%)" d="M 7.347656 3.152344 C 6.675781 3.152344 6.042969 3.785156 6.042969 4.457031 L 6.042969 31.847656 C 6.042969 32.480469 6.714844 33.152344 7.347656 33.152344 L 28.21875 33.152344 C 28.851562 33.152344 29.523438 32.480469 29.523438 31.847656 L 29.523438 11.632812 L 21.042969 3.152344 Z M 7.347656 3.152344"/> <g clip-path="url(#clip1)"> <g clip-path="url(#clip2)"> <use xlink:href="#image6"/> </g> </g> <path style="fill:rgb(98.039%,90.980%,58.431%)" d="M 21.042969 3.152344 L 29.523438 11.632812 L 22.347656 11.632812 C 21.714844 11.632812 21.042969 10.960938 21.042969 10.328125 Z M 21.042969 3.152344"/> <path style="fill:rgb(100.000%,100.000%,100.000%)" d="M 15.617188 25.378906 C 14.929688 25.027344 14.390625 24.082031 14.75 23.34375 C 15.054688 22.726562 16.09375 22.554688 16.144531 21.765625 C 16.199219 21.019531 16.785156 20.410156 17.535156 20.402344 C 18.316406 20.398438 19.253906 20.304688 19.832031 20.917969 C 20.277344 21.390625 20.152344 22.46875 20.84375 22.714844 C 21.4375 22.925781 21.960938 23.523438 21.816406 24.246094 C 21.664062 25.011719 21.027344 25.4375 20.3125 25.542969 C 18.75 25.777344 17.125 25.914062 15.621094 25.382812 M 13.023438 21.601562 C 12.246094 21.058594 12.160156 20 12.195312 19.105469 C 12.207031 18.777344 12.210938 17.644531 12.453125 17.957031 C 12.703125 18.277344 12.636719 18.535156 13.136719 18.441406 C 13.894531 18.300781 14.179688 19.417969 14.765625 19.855469 C 15.292969 20.25 15.277344 21.265625 14.628906 21.601562 C 14.128906 21.859375 13.507812 21.894531 13.027344 21.597656 M 21.472656 21.550781 C 20.769531 21.265625 20.773438 20.226562 21.378906 19.78125 C 21.9375 19.363281 22.152344 18.382812 23.050781 18.476562 C 23.320312 18.503906 23.269531 17.175781 23.492188 17.839844 C 23.71875 18.527344 23.753906 19.273438 23.808594 19.992188 C 23.867188 20.773438 23.375 21.671875 22.546875 21.78125 C 22.175781 21.832031 21.78125 21.773438 21.46875 21.550781 M 15.703125 18.472656 C 14.875 18.0625 14.707031 16.824219 15.234375 16.109375 C 15.671875 15.519531 15.527344 14.421875 16.136719 14.140625 C 16.492188 13.976562 15.878906 15.117188 16.558594 15.179688 C 17.519531 15.265625 16.996094 16.367188 17.320312 16.96875 C 17.6875 17.644531 17.550781 18.570312 16.703125 18.660156 C 16.363281 18.695312 15.996094 18.667969 15.703125 18.472656 M 18.566406 18.398438 C 18.050781 18.023438 18.269531 17.316406 18.40625 16.800781 C 18.546875 16.269531 18.101562 15.105469 18.855469 15.148438 C 19.742188 15.195312 18.96875 14.015625 19.304688 14.136719 C 19.949219 14.367188 19.949219 15.488281 20.4375 16.078125 C 20.925781 16.667969 20.992188 17.734375 20.359375 18.300781 C 19.859375 18.742188 19.113281 18.714844 18.566406 18.398438"/> </g> </svg>

<svg width="36pt" height="36pt" version="1.1" viewBox="0 0 36 36" xmlns="http://www.w3.org/2000/svg"><defs><filter id="a" x="-.192" y="-.192" width="1.384" height="1.384" color-interpolation-filters="sRGB"><feGaussianBlur stdDeviation="0.67843748"/></filter></defs><path d="m7.3477 3.9022c-0.67188 0-1.3047 0.63281-1.3047 1.3047v27.391c0 0.63281 0.67188 1.3047 1.3047 1.3047h20.871c0.63281 0 1.3047-0.67188 1.3047-1.3047v-20.215l-8.4805-8.4805z" opacity=".3"/><path d="m7.3477 3.1523c-0.67188 0-1.3047 0.63281-1.3047 1.3047v27.391c0 0.63281 0.67188 1.3047 1.3047 1.3047h20.871c0.63281 0 1.3047-0.67188 1.3047-1.3047v-20.215l-8.4805-8.4805z" fill="#f7dd67"/><path d="m20.668 3.5272 8.4805 8.4805h-7.1758c-0.63281 0-1.3047-0.67187-1.3047-1.3047z" filter="url(#a)" opacity=".2"/><path d="m21.043 3.1523 8.4805 8.4805h-7.1758c-0.63281 0-1.3047-0.67187-1.3047-1.3047z" fill="#f9e794"/><path d="m15.617 25.379c-0.6875-0.35156-1.2266-1.2969-0.86719-2.0352 0.30469-0.61719 1.3438-0.78906 1.3945-1.5781 0.054688-0.74609 0.64062-1.3555 1.3906-1.3633 0.78125-0.003906 1.7188-0.097656 2.2969 0.51562 0.44531 0.47266 0.32031 1.5508 1.0117 1.7969 0.59375 0.21094 1.1172 0.80859 0.97266 1.5312-0.15234 0.76562-0.78906 1.1914-1.5039 1.2969-1.5625 0.23438-3.1875 0.37109-4.6914-0.16016m-2.5977-3.7812c-0.77734-0.54297-0.86328-1.6016-0.82813-2.4961 0.011719-0.32812 0.015626-1.4609 0.25781-1.1484 0.25 0.32031 0.18359 0.57812 0.68359 0.48438 0.75781-0.14062 1.043 0.97656 1.6289 1.4141 0.52734 0.39453 0.51172 1.4102-0.13672 1.7461-0.5 0.25781-1.1211 0.29297-1.6016-0.003906m8.4453-0.046875c-0.70312-0.28516-0.69922-1.3242-0.09375-1.7695 0.55859-0.41797 0.77344-1.3984 1.6719-1.3047 0.26953 0.027344 0.21875-1.3008 0.44141-0.63672 0.22656 0.6875 0.26172 1.4336 0.31641 2.1523 0.058594 0.78125-0.43359 1.6797-1.2617 1.7891-0.37109 0.050781-0.76562-0.007812-1.0781-0.23047m-5.7656-3.0781c-0.82812-0.41016-0.99609-1.6484-0.46875-2.3633 0.4375-0.58984 0.29297-1.6875 0.90234-1.9688 0.35547-0.16406-0.25781 0.97656 0.42188 1.0391 0.96094 0.085937 0.4375 1.1875 0.76172 1.7891 0.36719 0.67578 0.23047 1.6016-0.61719 1.6914-0.33984 0.035156-0.70703 0.007813-1-0.1875m2.8633-0.074218c-0.51562-0.375-0.29688-1.082-0.16016-1.5977 0.14062-0.53125-0.30469-1.6953 0.44922-1.6523 0.88672 0.046874 0.11328-1.1328 0.44922-1.0117 0.64453 0.23047 0.64453 1.3516 1.1328 1.9414s0.55469 1.6562-0.078125 2.2227c-0.5 0.44141-1.2461 0.41406-1.793 0.097657" fill="#fff"/></svg>
